!!!OTL: 1751. Was Alles die Gans traegt. / [Reimspiel.]
!!!ARE: Europa, Mitteleuropa, Deutschland, Schlesien
!!!SCT: E1751
!!!TXL: @@DE
!!!YEM: Copyright 1995, estate of Helmut Schaffrath.
**kern	**text
*ICvox	*
*M3/4	*
*k[f#]	*
*G:	*
!LO:TX:a:t=Nicht zu schnell.	!
!LO:TX:a:t=Hoffmann, ſchleſ. Volksl. Nr. 48.	!
{8d	Was
8.d	trägt
16d	die
=1	=1
4g	Gans
4g	auf
8f#	ih-
8g	-rem
=2	=2
4a	Schna-
4d}	-bel?
!LO:TX:a:t=Refr.	!
{8.e	Fe-
16e	-der-
=3	=3
2d;}	-gans!
=||	=||
{8d	Ei-
8d	-ne
=4	=4
4cc	Kö-
8cc	-chin
8cc	mit-
8.a	-ſamt
16cc	der
=5	=5
4b	Ga-
4b}	-bel,
{8.g	trägt
16b	die
=6	=6
4a	Gans
4a	auf
8.g	ih-
16a	-rem
=7	=7
4b/	Schnabel.
4b/}	.
!LO:TX:a:t=Refr.	!
{8.a	Fe-
16a	-der-
=8	=8
4g	-gans!
8r}	.
==	==
!!!AGN: Scherz -, Spiel - Lied, Reimspiel
!!!ONB: ESAC (Essen Associative Code) Database: ERK3
!!!AMT: simple triple
!!!AIN: vox
!!!EED: Helmut Schaffrath
!!!EEV: 1.0
!!!GTL: Scherz-, Spiel- und Spottlieder.
!!!URL-scan: https://rosdok.uni-rostock.de/mcrviewer/recordIdentifier/rosdok_ppn745177999/iview2/phys_0540.iview2?x=-449.8344612962892&y=249.33166640251875&scale=0.47549036216460333&rotation=0&layout=singlePageLayout
!!!ENC: Anna Maria Matuszewska
!!!EEV: 2025/08/01
*-	*-
